icons/go.svg

<?xml version="1.0" encoding="UTF-8"?>
<svg width="512px" height="192px" viewBox="0 0 512 192" version="1.1" xmlns="http://www.w3.org/2000/svg" xmlns:xlink="http://www.w3.org/1999/xlink" preserveAspectRatio="xMidYMid">
    <g>
        <path d="M292.533152,13.2950639 L293.657233,14.0455076 C306.869315,22.7704678 316.342129,34.7361275 322.574244,49.1946331 C324.069951,51.4381943 323.072813,52.6846171 320.081398,53.4324709 L315.017741,54.7277932 C303.571167,57.6768058 294.487155,60.1566573 283.191384,63.10567 L276.74841,64.7843862 C274.428264,65.3583626 273.787695,65.1170696 271.320433,62.3073717 L270.972336,61.9081465 C267.453024,57.9195933 264.816991,55.2559574 260.154613,52.878088 L259.255961,52.4353326 C243.551033,44.7075107 228.344673,46.9510719 214.135452,56.1746012 C197.184101,67.1431227 188.459141,83.3466202 188.708425,103.538671 C188.95771,123.481438 202.668362,139.93422 222.361843,142.67635 C239.313195,144.919911 253.522416,138.937081 264.740222,126.223568 C266.983783,123.481438 268.978059,120.490023 271.470905,117.000039 L223.358982,117.000039 C218.124006,117.000039 216.877583,113.759339 218.622575,109.521501 L219.486848,107.487264 C222.690544,100.033179 227.659682,89.3185944 230.887235,83.1925665 L231.591356,81.8743455 C232.452883,80.3801337 234.202861,78.3609287 237.568203,78.3609287 L317.791861,78.3603482 C321.394911,66.9456209 327.24084,56.159659 335.038473,45.9539335 C353.236247,22.0226141 375.17329,9.55838523 404.838154,4.32340907 C430.265181,-0.163713323 454.196501,2.32913245 475.884259,17.0369225 C495.577741,30.4982897 507.792685,48.6960639 511.033385,72.6273834 C515.271222,106.280802 505.549124,133.702105 482.365658,157.134856 C465.912876,173.836922 445.720825,184.306875 422.537359,189.043282 C415.806676,190.289704 409.075992,190.538989 402.594593,191.286843 C379.909697,190.788274 359.219077,184.306875 341.769156,169.3498 C329.496056,158.740849 321.041799,145.701725 316.840932,130.522127 C313.926247,136.409796 310.44016,142.04853 306.370746,147.412757 C288.422257,171.094792 264.989506,185.802582 235.324641,189.791135 C210.894753,193.031835 188.209856,188.295428 168.26709,173.338353 C149.820031,159.378417 139.350079,140.931358 136.607949,117.997177 C133.367249,90.8251575 141.344356,66.3952689 157.797138,44.9567952 C175.496343,21.7733295 198.929093,7.06553943 227.59682,1.8305633 C250.59563,-2.32879605 272.633891,0.235689133 292.533152,13.2950639 L292.533152,13.2950639 Z M411.120284,49.0171223 L410.322415,49.1946331 C387.138949,54.4296092 372.181875,69.1373993 366.697614,92.5701496 C362.210492,112.014347 371.683306,131.707829 389.631795,139.684935 C403.342447,145.667765 417.053099,144.919911 430.265181,138.189228 C449.958663,127.96856 460.6779,112.014347 461.924323,90.575873 C461.675038,87.3351735 461.675038,84.8423277 461.176469,82.3494819 C456.739764,57.9476028 434.511926,44.025432 411.120284,49.0171223 L411.120284,49.0171223 Z M116.415898,94.5644262 C117.413036,94.5644262 117.911605,95.3122799 117.911605,96.3094183 L117.413036,102.292248 C117.413036,103.289387 116.415898,104.03724 115.668044,104.03724 L61.3240061,103.787956 C60.3268678,103.787956 60.0775833,103.040102 60.5761524,102.292248 L64.0661365,96.0601337 C64.5647057,95.3122799 65.561844,94.5644262 66.5589823,94.5644262 L116.415898,94.5644262 Z M121.900159,71.6302451 C122.897297,71.6302451 123.395866,72.3780988 123.146581,73.1259525 L121.152305,79.1087824 C120.90302,80.1059207 119.905882,80.6044899 118.908744,80.6044899 L0.99713831,80.8537744 C0,80.8537744 -0.249284578,80.3552053 0.249284578,79.6073515 L5.48426071,72.8766679 C5.98282987,72.1288142 7.22925276,71.6302451 8.22639107,71.6302451 L121.900159,71.6302451 Z M134.862957,48.6960639 C135.860095,48.6960639 136.109379,49.4439176 135.61081,50.1917714 L131.372973,56.6731704 C130.874403,57.4210241 129.62798,58.1688779 128.880127,58.1688779 L38.6391096,57.9195933 C37.6419713,57.9195933 37.3926867,57.4210241 37.8912558,56.6731704 L43.126232,49.9424868 C43.6248011,49.1946331 44.871224,48.6960639 45.8683623,48.6960639 L134.862957,48.6960639 Z" fill="#00ACD7" fill-rule="nonzero"></path>
    </g>
</svg>

<svg xmlns="http://www.w3.org/2000/svg" viewBox="0 0 512 191.287">
  <path fill="#00acd7" d="m292.533 13.295 1.124.75c13.212 8.725 22.685 20.691 28.917 35.15 1.496 2.243.499 3.49-2.493 4.237l-5.063 1.296c-11.447 2.949-20.53 5.429-31.827 8.378l-6.443 1.678c-2.32.574-2.96.333-5.428-2.477l-.348-.399c-3.519-3.988-6.155-6.652-10.817-9.03l-.899-.443c-15.705-7.727-30.911-5.484-45.12 3.74-16.952 10.968-25.677 27.172-25.428 47.364.25 19.942 13.96 36.395 33.654 39.137 16.951 2.244 31.16-3.739 42.378-16.452 2.244-2.743 4.238-5.734 6.73-9.224H223.36c-5.235 0-6.481-3.24-4.736-7.478l.864-2.035c3.204-7.454 8.173-18.168 11.4-24.294l.704-1.319c.862-1.494 2.612-3.513 5.977-3.513h80.224c3.603-11.415 9.449-22.201 17.246-32.407 18.198-23.931 40.135-36.396 69.8-41.63 25.427-4.488 49.358-1.995 71.046 12.713 19.694 13.461 31.909 31.66 35.15 55.59 4.237 33.654-5.485 61.075-28.668 84.508-16.453 16.702-36.645 27.172-59.829 31.908-6.73 1.247-13.461 1.496-19.942 2.244-22.685-.499-43.376-6.98-60.826-21.937-12.273-10.61-20.727-23.648-24.928-38.828a104.937 104.937 0 0 1-10.47 16.89c-17.949 23.683-41.381 38.39-71.046 42.38-24.43 3.24-47.115-1.497-67.058-16.454-18.447-13.96-28.917-32.407-31.66-55.34-3.24-27.173 4.737-51.603 21.19-73.041 17.7-23.184 41.132-37.891 69.8-43.126 22.999-4.16 45.037-1.595 64.936 11.464zM411.12 49.017l-.798.178c-23.183 5.235-38.14 19.942-43.624 43.375-4.488 19.444 4.985 39.138 22.934 47.115 13.71 5.983 27.421 5.235 40.633-1.496 19.694-10.22 30.413-26.175 31.66-47.613-.25-3.24-.25-5.734-.749-8.227-4.436-24.401-26.664-38.324-50.056-33.332zM116.416 94.564c.997 0 1.496.748 1.496 1.745l-.499 5.983c0 .997-.997 1.745-1.745 1.745l-54.344-.249c-.997 0-1.246-.748-.748-1.496l3.49-6.232c.499-.748 1.496-1.496 2.493-1.496zM121.9 71.63c.997 0 1.496.748 1.247 1.496l-1.995 5.983c-.249.997-1.246 1.495-2.243 1.495l-117.912.25c-.997 0-1.246-.499-.748-1.247l5.235-6.73c.499-.748 1.745-1.247 2.742-1.247zm12.963-22.934c.997 0 1.246.748.748 1.496l-4.238 6.481c-.499.748-1.745 1.496-2.493 1.496l-90.24-.25c-.998 0-1.247-.498-.749-1.246l5.235-6.73c.499-.748 1.745-1.247 2.742-1.247z"/>
</svg>
